src/cmd/sc_footnotedialog.svg

<svg viewBox="0 0 16 16" xmlns="http://www.w3.org/2000/svg"><path d="m2 2v3h1v-2h10v4h1v-5zm2 2v1h7v-1zm0 2v1h5v-1zm0 3v1h6v-1zm0 4v1h7v-1z" fill="#232629"/><path d="m13 8-1 2h1v4h1v-6zm-9 3v1h4v-1z" fill="#762572"/><path d="m2 6c-.5522847 0-1 .4477153-1 1s.4477153 1 1 1 1-.4477153 1-1-.4477153-1-1-1zm0 3c-.5522847 0-1 .4477153-1 1 0 .552285.4477153 1 1 1s1-.447715 1-1c0-.5522847-.4477153-1-1-1zm0 3c-.5522847 0-1 .447723-1 1s.4477153 1 1 1 1-.447723 1-1-.4477153-1-1-1z" fill="#e95420"/></svg>

<?xml version="1.0" encoding="UTF-8" standalone="no"?>
<svg
   xmlns:dc="http://purl.org/dc/elements/1.1/"
   xmlns:cc="http://creativecommons.org/ns#"
   xmlns:rdf="http://www.w3.org/1999/02/22-rdf-syntax-ns#"
   xmlns:svg="http://www.w3.org/2000/svg"
   xmlns="http://www.w3.org/2000/svg"
   xmlns:sodipodi="http://sodipodi.sourceforge.net/DTD/sodipodi-0.dtd"
   xmlns:inkscape="http://www.inkscape.org/namespaces/inkscape"
   viewBox="0 0 16 16"
   version="1.1"
   id="svg8"
   sodipodi:docname="sc_footnotedialog.svg"
   inkscape:version="0.92.4 (5da689c313, 2019-01-14)">
  <metadata
     id="metadata14">
    <rdf:RDF>
      <cc:Work
         rdf:about="">
        <dc:format>image/svg+xml</dc:format>
        <dc:type
           rdf:resource="http://purl.org/dc/dcmitype/StillImage" />
      </cc:Work>
    </rdf:RDF>
  </metadata>
  <defs
     id="defs12" />
  <sodipodi:namedview
     pagecolor="#ffffff"
     bordercolor="#666666"
     borderopacity="1"
     objecttolerance="10"
     gridtolerance="10"
     guidetolerance="10"
     inkscape:pageopacity="0"
     inkscape:pageshadow="2"
     inkscape:window-width="1920"
     inkscape:window-height="1011"
     id="namedview10"
     showgrid="true"
     inkscape:zoom="29.5"
     inkscape:cx="5.8815125"
     inkscape:cy="8.4650818"
     inkscape:window-x="0"
     inkscape:window-y="32"
     inkscape:window-maximized="1"
     inkscape:current-layer="svg8">
    <inkscape:grid
       type="xygrid"
       id="grid821" />
  </sodipodi:namedview>
  <path
     d="M 3,5 V 3 h 10 v 4 h 1 V 2 H 2 v 3 9 h 2 7 V 13 H 4 3 Z M 4,4 v 1 h 7 V 4 Z M 4,6 V 7 H 9 V 6 Z m 0,3 v 1 h 6 V 9 Z"
     id="path2"
     inkscape:connector-curvature="0"
     style="fill:#232629"
     sodipodi:nodetypes="cccccccccccccccccccccccccccccc" />
  <path
     d="m13 8-1 2h1v4h1v-6zm-9 3v1h4v-1z"
     fill="#762572"
     id="path4" />
</svg>
